X:256
T:Polska efter klockaren O. Laugren i Alva m. fl.Polska efter klockaren O. Laugren i Alva m. fl.
S:http://www.gotlandstoner.se/web/256/abc 2021-1-5
R:polska
O:Gotland, Alva
M:3/4
L:1/16
K:G
d2g2 f2g2 agfe|d2d2 B,2d2 edcB|c2c2 A,2c2 dcBA|B2Bd c2B2A2G2|G2FG AGFE D4|
d2g2 f2g2 agfe|d2d2 B,2d2 edcB|c2c2 A,2c2 dcBA|B2Bd c2B2 ABcd|ecAF F2G2 G,4::
B2G2 G2B2 cBAG|A2F2 F2A2 AGFE|F2D2 D2F2 GFEF|DEFG ABcd efge|fgaf d4 D4|
d2g2 f2g2 agfe|d2d2 B,2d2 edcB|c2c2 A,2c2 dcBA|B,2d2A,2c2G,2B2|BAGF G4 G,4:|

